!!!!SEGMENT: Ver3005-Occhi_infelici_cha_mirar.krn
!!!id: Ver3005
!!!AGN: Madrigal
!!!voices: 4
!!!COM: Philippe Verdelot
!!!OTL: Occhi infelici ch'a mirar
**kern	**kern	**kern	**kern
*part4	*part3	*part2	*part1
*staff4	*staff3	*staff2	*staff1
*I"Bassus	*I"Tenor	*I"Altus	*I"Superius
*I'B	*I'T	*I'A	*I'S
*clefF4	*clefGv2	*clefGv2	*clefG2
*k[]	*k[]	*k[]	*k[]
*C:	*C:	*C:	*C:
*M2/1	*M2/1	*M2/1	*M2/1
*met(C|)	*met(C|)	*met(C|)	*met(C|)
0C	0e	0g	0cc
=1	=1	=1	=1
2G	2d	2g	2b
2A	2c	2e	2a
2E	2B	2e	2g
2E	2B	2e	2g
=2	=2	=2	=2
1A	1c	1e	1a
2G	2d	2g	2b
2A	2c	2f	[2cc
=3	=3	=3	=3
1G	1d	1g	2cc]
.	.	.	2b
2C	2c	2e	2cc
2C	2c	2e	2cc
=4	=4	=4	=4
2r	2r	2r	2r
2C	2e	2c	2g
2C	2e	2c	2g
2C	2e	2c	2g
=5	=5	=5	=5
2D	2d	2A	2f
2BB-X	2d	2B-X	2f
2C	2c	2G	2e
2C	2c	2G	2e
=6	=6	=6	=6
2r	2r	2r	2r
2C	2e	2c	2g
2C	2e	2c	2g
2C	2e	2c	2g
=7	=7	=7	=7
2D	2d	2A	2f
2BB-X	2d	2B-X	2f
2C	2c	2G	2e
2C	2c	2G	2e
=8	=8	=8	=8
1C	2r	2r	2r
.	2c	2g	2e
2E	2B	2g	2e
2C	[2c	2g	2e
=9	=9	=9	=9
1G	2c]	1.g	1d
.	2B	.	.
1C	2.c	.	1e
.	.	4f	.
.	4B	4e	.
=10	=10	=10	=10
2D	2A	2d	2f
2E	2G	2c	1g
1D	1A	2d	.
.	.	2d	2f#i
=11	=11	=11	=11
2G	2G	2B	2g
2G	2G	2B	2g
2r	2r	2r	2r
2G	2g	2d	2b
=12	=12	=12	=12
2G	2g	2d	2b
2G	2g	2d	2b
2G	2g	2d	2b
2G	2g	2d	2b
=13	=13	=13	=13
1F	1a	1f	1cc
1G	[1g	1d	1b
=14	=14	=14	=14
1.D	2g]	1.d	1.a
.	4f#i	.	.
.	4e	.	.
.	2f#i	.	.
2D	2f#i	2d	2a
=15	=15	=15	=15
2G	2g	2d	2b
2G	2g	2d	2b
2r	2r	2r	2r
2G	2d	2B	2g
=16	=16	=16	=16
2G	2B	2d	2g
2C	2c	2e	2g
2D	2A	2d	2f
2D	2A	2d	2f
=17	=17	=17	=17
1C	1c	2G	1g
.	.	1g	.
2C	2G	.	2e
2E	2G	2e	2g
=18	=18	=18	=18
2D	2A	2f	2f
2C	2c	2g	2e
2G	2c	2g	2d
2G	2B	2g	2d
=19	=19	=19	=19
2C	2c	2e	2c
2C	2c	2e	2c
2r	2r	2r	2r
2C	2c	2e	2g
=20	=20	=20	=20
2F	2c	2f	2a
2A	2c	4e	2cc
.	.	4f	.
2G	2d	4g	2b
.	.	4G	.
2F	2d	2A	2a
=21	=21	=21	=21
1E	2.e	1B	1.g
.	4d	.	.
1C	4c	2c	.
.	4B	.	.
.	2A	2e	4f
.	.	.	4e
=22	=22	=22	=22
2D	1A	1d	2f
2D	.	.	2g
1G	1B	1d	1g
=23	=23	=23	=23
1G	1B	1d	1g
[1G	[1g	[1B	[1dd
=24	=24	=24	=24
1G]	1g]	1B]	1dd]
2.C	2.e	2.g	2.cc
4D	4d	4f	4b
=25	=25	=25	=25
2F	2c	2f	2a
2G	2B	2e	2g
2D	2A	2d	2f
2D	2A	2d	2f
=26	=26	=26	=26
2r	2r	2r	2r
2D	2f	2d	2a
2A	2e	2c	2a
2A	2f	2c	2a
=27	=27	=27	=27
2G	2g	2d	2b
2G	2g	2d	2b
1F	1a	1f	4cc
.	.	.	4a
.	.	.	4b
.	.	.	4cc
=28	=28	=28	=28
2G	2.g	2d	4b
.	.	.	4cc
2G	.	2d	1dd
.	4f	.	.
1A	1e	1a	.
.	.	.	2cc#i
=29	=29	=29	=29
2D	2d	2f	2dd
2D	2d	2f	2dd
1F	2r	2r	1cc
.	2A	2f	.
=30	=30	=30	=30
2G	2B	2d	2b
2F	2d	2f	2a
2G	2d	2e	2g
2A	2c	2e	2e
=31	=31	=31	=31
2D	2d	2d	2f
2D	2A	2d	2f
4C	1c	1e	2r
4D	.	.	.
4E	.	.	2g
4F	.	.	.
=32	=32	=32	=32
4G	2B	1.d	2g
4A	.	.	.
4B	2G	.	2g
4c	.	.	.
2d	2B	.	2g
2c	2c	2e	2g
=33	=33	=33	=33
2c	1d	2d	1g
2B	.	2G	.
2A	2e	2c	1a
2F	2f	2c	.
=34	=34	=34	=34
2G	2d	2B	2b
2G	1g	2.d	2b
1A	.	.	1cc
.	.	4c	.
.	2f#i	4c	.
.	.	8BL	.
.	.	8cJ	.
=35	=35	=35	=35
1G	0g	2d	1b
.	.	2d	.
2r	.	2r	2r
2c	.	2e	2g
=36	=36	=36	=36
2B	2r	2d	2g
2A	2c	2c	2f
1G	2c	2d	2g
.	2B	2e	2g
=37	=37	=37	=37
2F	2c	1f	2a
4E	2d	.	2b
4D	.	.	.
1C	2e	2g	2cc
.	4d	4f	4b
.	4c	4e	4a
=38	=38	=38	=38
1G	4B	2.d	4g
.	4c	.	4a
.	4d	.	4b
.	4B	4e	4g
2F	2c	2f	4a
.	.	.	4b
2A	2c	2e	4cc
.	.	.	4a
=39	=39	=39	=39
2G	1d	2g	2b
2D	.	2f	2.a
2E	2B	1e	.
.	.	.	4g
2C	2c	.	[2g
=40	=40	=40	=40
1D	1A	1d	2g]
.	.	.	2f#i
1G	1G	1d	2g
.	.	.	2g
=41	=41	=41	=41
2r	2r	2r	2r
2G	2g	2d	2b
2F	2a	2f	2cc
2F	2a	2f	2dd
=42	=42	=42	=42
1G	2g	1d	2b
.	2d	.	2g
[1F	[1f	1r	[1a
=43	=43	=43	=43
1F]	2f]	1a	2a]
.	2e	.	2g
1F	2d	1a	2f
.	2c	.	2e
=44	=44	=44	=44
1G	2c	2.g	1d
.	2B	.	.
.	.	4f	.
[1A	2c	4e	[1cl
.	.	4d	.
.	2e	2c	.
=45	=45	=45	=45
2A]	2f	2r	0c_
2G	2g	2e	.
2F	2a	2f	.
2E	2g	2g	.
=46	=46	=46	=46
1F	2.f	2a	0c_
.	.	2f	.
.	8eL	.	.
.	8dJ	.	.
[1Cl	4e	4g	.
.	4d	4f	.
.	4e	4e	.
.	4f	4d	.
=47	=47	=47	=47
00C]	00gl	00el	00c]
==	==	==	==
*-	*-	*-	*-
!!!system-decoration: [*]
!!!RDF**kern: i = editorial accidental
!!!RDF**kern: l = terminal long
!!!ENC: Benjamin Ory
!!!END: 2024/4/1
!!!EED: Benjamin Ory
!!!EEV: 2024/04/01
!!!YEC: Copyright 2024 Benjamin Ory, All Rights Reserved
!!!ONB: Translated from MusicXML on 2024/04/01
